static/assets/img/icons/theme/general/notifications-1.svg

<svg height="24" viewBox="0 0 24 24" width="24" xmlns="http://www.w3.org/2000/svg"><g fill="#000" fill-rule="evenodd"><path d="m17 12h1.5c.8284271 0 1.5.6715729 1.5 1.5s-.6715729 1.5-1.5 1.5h-13c-.82842712 0-1.5-.6715729-1.5-1.5s.67157288-1.5 1.5-1.5h1.5l.5582739-5.02446506c.25147534-2.26327806 2.16452004-3.97553494 4.4417261-3.97553494 2.2772061 0 4.1902508 1.71225688 4.4417261 3.97553494z"/><rect height="4" opacity=".3" rx="2" width="4" x="10" y="16"/></g></svg>

<svg width="24px" height="24px" viewBox="0 0 24 24" version="1.1" xmlns="http://www.w3.org/2000/svg" xmlns:xlink="http://www.w3.org/1999/xlink">
    <title>Icon For Notifications#1</title>
    <g stroke="none" stroke-width="1" fill="none" fill-rule="evenodd">
        <path d="M17,12 L18.5,12 C19.3284271,12 20,12.6715729 20,13.5 C20,14.3284271 19.3284271,15 18.5,15 L5.5,15 C4.67157288,15 4,14.3284271 4,13.5 C4,12.6715729 4.67157288,12 5.5,12 L7,12 L7.5582739,6.97553494 C7.80974924,4.71225688 9.72279394,3 12,3 C14.2772061,3 16.1902508,4.71225688 16.4417261,6.97553494 L17,12 Z" fill="#000000"></path>
        <rect fill="#000000" opacity="0.3" x="10" y="16" width="4" height="4" rx="2"></rect>
    </g>
</svg>
